!!!COM:	Martini, Johannes
!!!CDT:	~1440///-~1497//
!!!OTL:	Qui confidunt
!!!AGN:	Motet
!!!SCT:	Mar2083
!!!SCA:	Mar2083
!!!voices:	2
**kern	**kern
*staff2	*staff1
*Ivox	*Ivox
*I"Tenor	*I"Superius
*I'T	*I'S
*>[A,B,C,D,E,F,G]	*>[A,B,C,D,E,F,G]
*>A	*>A
*clefGv2	*clefG2
*k[]	*k[]
*M2/1	*M2/1
*met(C)	*met(C)
=1-	=1-
!!section: Non commovebitur
!!!OMD: Non commovebitur
!!LO:TX:Z=8:t=Choir 1
1c	1cc
2e\	2cc\
2e\	2cc\
=2	=2
2e\	2cc\
2e\	2cc\
1e	1cc
=3	=3
2d\	2b\
2c\	2a/
1d	1b
=4	=4
1c	1cc
1e	2r
.	2cc\
=5	=5
2e\	2cc\
2e\	2cc\
1e	1cc
=6	=6
2.c\	2.a/
4d\	4b\
2e\	2cc\
2d\	[2dd\
=7	=7
2f\	2dd\]
2e\	1cc
1d	.
.	2b\
=8	=8
0cl	0ccl
=9||	=9||
*>B	*>B
!!LO:TX:Z=8:t=Choir 2
!!section: Montes in circuitu ejus
!!!OMD: Montes in circuitu ejus
1G	1g
1c	1a
=10	=10
1c	1cc
2c\	2cc\
2c\	2cc\
=11	=11
2c\	2cc\
2c\	2cc\
1c	1cc
=12	=12
1c	1cc
1e	2r
.	2cc\
=13	=13
2e\	2cc\
2e\	2cc\
1e	1cc
=14	=14
2e\	2cc\
2e\	2cc\
2e\	2cc\
2e\	2cc\
=15	=15
1e	1cc
2d\	2b\
2e\	2cc\
=16	=16
2f\	2dd\
2e\	1cc
1d	.
.	2b\
=17	=17
1c	1cc
1r	1r
=18	=18
2e\	2cc\
2e\	2cc\
2e\	2cc\
2e\	2cc\
=19	=19
1e	1cc
2.c\	2.a/
4d\	4b\
=20	=20
2e\	2cc\
1f	1dd
2e\	[2cc\
=21	=21
1d	2cc\]
.	2b\
1cl	1ccl
=22||	=22||
*>C	*>C
!!section: Quia non relinquet
!!!OMD: Quia non relinquet
!!LO:TX:Z=8:t=Choir 1
1c	1cc
1e	1cc
=23	=23
2e\	2cc\
2e\	2cc\
2e\	2cc\
2e\	2cc\
=24	=24
2e\	2cc\
2e\	2cc\
1e	1cc
=25	=25
2e\	2cc\
2e\	2cc\
2d\	2b\
2c\	2a/
=26	=26
1d	1b
1c	1a
=27	=27
2e\	2cc\
2e\	2cc\
1e	1cc
=28	=28
2d\	2b\
2e\	2cc\
1f	1dd
=29	=29
1c	1cc
1r	1r
=30	=30
1e	1cc
2e\	2cc\
2e\	2cc\
=31	=31
2e\	2cc\
2e\	2cc\
1e	1cc
=32	=32
1e	1cc
1c	2r
.	2cc\
=33	=33
2e\	2cc\
2e\	2cc\
2e\	2cc\
2e\	2cc\
=34	=34
1e	1cc
2c\	2a/
2e\	2cc\
=35	=35
1f	1dd
1cl	1ccl
=36||	=36||
*>D	*>D
!!section: Benefac, Domine
!!!OMD: Benefac, Domine
!!LO:TX:Z=8:t=Choir 2
1c	1cc
2e\	2cc\
2e\	2cc\
=37	=37
2e\	2cc\
2e\	2cc\
1c	1cc
=38	=38
1r	1r
2e\	2cc\
2e\	2cc\
=39	=39
1e	1cc
2c\	2a/
2e\	2cc\
=40	=40
1f	1dd
1cl	1ccl
=41||	=41||
*>E	*>E
!!LO:TX:Z=8:t=Choir 1
!!section: Declinantes autem
!!!OMD: Declinantes autem
2e\	2cc\
2e\	2cc\
2e\	2cc\
2e\	2cc\
=42	=42
1e	1cc
1d	1b
=43	=43
2c\	2a/
2d\	2b\
2c\	2a/
[2f\	[2dd\
=44	=44
2f\]	2dd\]
2e\	1cc
1d	.
.	2b\
=45	=45
1c	1cc
1r	1r
=46	=46
1e	1cc
2e\	2cc\
2e\	2cc\
=47	=47
2e\	2cc\
2e\	2cc\
1e	1cc
=48	=48
1c	1cc
2e\	2cc\
2e\	2cc\
=49	=49
2e\	2cc\
2e\	2cc\
1e	1cc
=50	=50
1e	1cc
2d\	2b\
2c\	2a/
=51	=51
1d	1b
1c	1cc
=52	=52
1r	1r
1e	1cc
=53	=53
2.c\	2.a/
4d\	4b\
2e\	2cc\
2d\	[2dd\
=54	=54
2f\	2dd\]
2e\	1cc
1d	.
.	2b\
=55	=55
0cl	0ccl
=56||	=56||
*>F	*>F
!!section: Gloria Patri
!!!OMD: Gloria Patri
!!LO:TX:Z=8:t=Choir 2
1c	1cc
2e\	2cc\
2e\	2cc\
=57	=57
1e	1cc
2e\	2cc\
2d\	[2dd\
=58	=58
2f\	2dd\]
2e\	1cc
1d	.
.	2b\
=59	=59
1c	1cc
1r	1r
=60	=60
1e	1cc
2e\	2cc\
2e\	2cc\
=61	=61
1d	1b
2.c\	2.a/
4d\	4b\
=62	=62
2e\	2cc\
1f	1dd
2e\	[2cc\
=63	=63
1d	2cc\]
.	2b\
1cl	1ccl
=64||	=64||
*>G	*>G
!!LO:TX:Z=8:t=Choir 1
!!section: Sicut erat
!!!OMD: Sicut erat
2c\	2cc\
2c\	2cc\
2e\	2cc\
2e\	2cc\
=65	=65
2e\	2cc\
2e\	2cc\
2e\	2cc\
2e\	2cc\
=66	=66
1e	1cc
1c	1cc
=67	=67
2d\	2b\
2e\	2cc\
1f	1dd
=68	=68
1c	1cc
1r	1r
=69	=69
2e\	2cc\
2e\	2cc\
2e\	2cc\
2e\	2cc\
=70	=70
1e	1cc
2e\	2cc\
2e\	2cc\
=71	=71
2c\	2a/
2e\	2cc\
1f	1dd
=72	=72
0cl	0ccl
==	==
*-	*-
!!!RDF**kern: l=long note in original notation
!!!ENC:	Chris Gage 02-10-2014
!!!END:	2014/10/05/
!!!EED:	Jesse Rodin
!!!EEV:	2014/10/23/
!!!ONB:	Translated from MusicXML and edited on 2014/10/23/ by Craig Sapp
!!muse2ps: C^@{COM}^i2I150v85,150Q16
